X: 37750
T: Solstice, The
R: reel
M: 4/4
K: Ddorian
A,C|:DdAF DEFD|CE (3EEE FEDC|DdAF DEFD|1 CEA,^C D2A,=C:|2 CEA,^C D^FGA||
dD (3DDD cD (3DDD|BG (3GGG AFEF|CFA,F G,A,CD|FAcf ec (3Bc^c|
dD (3DDD cD (3DDD|BG (3GGG AFEF|CFA,F G,A,CD|GFEF D2||

